svg/happy_positive.svg

<?xml version="1.0" encoding="UTF-8" standalone="no"?>
<!-- Created with Inkscape (http://www.inkscape.org/) -->
<svg id="svg8" xmlns:rdf="http://www.w3.org/1999/02/22-rdf-syntax-ns#" xmlns="http://www.w3.org/2000/svg" xmlns:osb="http://www.openswatchbook.org/uri/2009/osb" height="48" width="48" version="1.1" xmlns:cc="http://creativecommons.org/ns#" viewBox="0 0 12.7 12.7" xmlns:dc="http://purl.org/dc/elements/1.1/">
 <title id="title4753">UIO-icon</title>
 <metadata id="metadata5">
  <rdf:RDF>
   <cc:Work rdf:about="">
    <dc:format>image/svg+xml</dc:format>
    <dc:type rdf:resource="http://purl.org/dc/dcmitype/StillImage"/>
    <dc:title>UIO-icon</dc:title>
    <dc:creator>
     <cc:Agent>
      <dc:title>Joaquín Urbano</dc:title>
     </cc:Agent>
    </dc:creator>
    <dc:rights>
     <cc:Agent>
      <dc:title>GPL</dc:title>
     </cc:Agent>
    </dc:rights>
   </cc:Work>
  </rdf:RDF>
 </metadata>
 <g id="layer1" transform="translate(0,-284.3)" fill="#333">
  <path id="path1244" d="m24 4c-11.046-3.78e-7 -20 8.9543-20 20-3.33e-7 11.046 8.9543 20 20 20 11.046 3.8e-7 20-8.9543 20-20 3.4e-7 -11.046-8.9543-20-20-20zm0 0.51758c10.76 0 19.482 8.7224 19.482 19.482s-8.722 19.482-19.482 19.482-19.482-8.722-19.482-19.482c-0.0004-10.76 8.722-19.482 19.482-19.482zm-6.854 9.3654c-1.9522 0.00027622-3.5347 2.097-3.5352 4.6836-0.00040213 2.5874 1.5824 4.6853 3.5352 4.6855 1.9535 0.001153 3.5375-2.0971 3.5371-4.6855-0.00041188-2.5877-1.5842-4.6847-3.5371-4.6836zm12.904 0c-1.9522 0.00027623-3.5347 2.097-3.5352 4.6836-0.00040213 2.5874 1.5824 4.6853 3.5352 4.6855 1.9535 0.001153 3.5375-2.0971 3.5371-4.6855-0.00041188-2.5877-1.5842-4.6847-3.5371-4.6836zm-18.914 14.447v0.51367h0.027344c0.18312 3.6161 2.5202 6.9031 6.1992 8.7188 3.8561 1.896 8.6079 1.8967 12.465 0.001953 3.6872-1.812 6.0323-5.1006 6.2188-8.7207h0.016v-0.51367z" fill-rule="evenodd" transform="matrix(.26458 0 0 .26458 0 284.3)"/>
 </g>
</svg>

<svg width="48" height="48" viewBox="0 0 48 48" fill="none" xmlns="http://www.w3.org/2000/svg">
<path fill-rule="evenodd" clip-rule="evenodd" d="M23.9997 4C12.9539 4 4 12.9542 4 23.9997C4 35.0456 12.9542 43.9995 23.9997 43.9995C35.0456 43.9995 43.9995 35.0453 43.9995 23.9997C43.9995 12.9539 35.0453 4 23.9997 4ZM23.9997 4.51757C34.7596 4.51757 43.4815 13.2399 43.4815 23.9993C43.4815 34.7588 34.7596 43.4811 23.9997 43.4811C13.2399 43.4811 4.51799 34.7592 4.51799 23.9993C4.51759 13.2395 13.2399 4.51757 23.9997 4.51757ZM17.1458 13.8829C15.1937 13.8831 13.6112 15.9798 13.6107 18.5664C13.6103 21.1538 15.1931 23.2516 17.1458 23.2518C19.0993 23.253 20.6833 21.1548 20.6829 18.5664C20.6825 15.9787 19.0987 13.8818 17.1458 13.8829ZM30.0497 13.8829C28.0975 13.8831 26.515 15.9798 26.5145 18.5664C26.5141 21.1538 28.0969 23.2516 30.0497 23.2518C32.0031 23.253 33.5871 21.1548 33.5867 18.5664C33.5863 15.9787 32.0025 13.8818 30.0497 13.8829ZM11.1359 28.3297V28.8433H11.1633C11.3464 32.4594 13.6834 35.7464 17.3624 37.562C21.2184 39.458 25.9702 39.4587 29.8272 37.564C33.5144 35.752 35.8594 32.4634 36.0459 28.8434H36.0619V28.3297H11.1359Z" fill="#333333"/>
</svg>
